X:7
T:Banshee
Z: id:dc-reel-8
M:C
L:1/8
K:G Major
G3D EDEG|AGAB d2Bd|eged BAGA|BAGE EDDE|!
G3D EDEG|AGAB d2Bd|eged BAGA|BAGE EDD2:|!
eaag efge|dBBA B3d|eBB2 egfg|eBBA B3d|!
eaag efge|dBBA B3d|eged BAGA|BAGE EDD2:|!

